src/icons/link.svg

<svg width="24" height="24" viewBox="0 0 24 24" fill="none" xmlns="http://www.w3.org/2000/svg">
<path d="M18.0047 10.2339L20.124 8.11459C21.2945 6.94412 21.2945 5.04642 20.124 3.87596C18.9536 2.70549 17.0559 2.70549 15.8854 3.87596L10.9403 8.82103C9.76988 9.99149 9.76988 11.8892 10.9403 13.0597L11.6468 13.7661L10.2339 15.179L9.52747 14.4725C7.57669 12.5218 7.57669 9.35893 9.52747 7.40815L14.4725 2.46308C16.4233 0.512306 19.5861 0.512306 21.5369 2.46308C23.4877 4.41386 23.4877 7.57669 21.5369 9.52747L18.0047 13.0597C17.2244 12.2793 17.2244 11.0142 18.0047 10.2339Z" fill="black"/>
<path d="M5.99527 13.7661L3.87596 15.8854C2.70549 17.0559 2.70549 18.9536 3.87596 20.124C5.04642 21.2945 6.94412 21.2945 8.11459 20.124L13.0597 15.179C14.2301 14.0085 14.2301 12.1108 13.0597 10.9403L12.3532 10.2339L13.7661 8.82103L14.4725 9.52747C16.4233 11.4782 16.4233 14.6411 14.4725 16.5919L9.52747 21.5369C7.57669 23.4877 4.41386 23.4877 2.46308 21.5369C0.512306 19.5861 0.512306 16.4233 2.46308 14.4725L5.99527 10.9403C6.77558 11.7207 6.77558 12.9858 5.99527 13.7661Z" fill="black"/>
</svg>

<svg xmlns="http://www.w3.org/2000/svg" width="24" height="24" fill="none"><path fill="currentColor" d="m18.005 10.234 2.119-2.12a2.997 2.997 0 1 0-4.239-4.238L10.94 8.821a2.997 2.997 0 0 0 0 4.239l.707.706-1.413 1.413-.707-.707a4.995 4.995 0 0 1 0-7.064l4.946-4.945a4.995 4.995 0 0 1 7.064 7.064l-3.532 3.533a2 2 0 0 1 0-2.826"/><path fill="currentColor" d="m5.995 13.766-2.119 2.12a2.997 2.997 0 1 0 4.239 4.238l4.945-4.945a2.997 2.997 0 0 0 0-4.239l-.707-.706 1.413-1.413.707.706a4.995 4.995 0 0 1 0 7.065l-4.946 4.945a4.995 4.995 0 1 1-7.064-7.064l3.532-3.533c.78.78.78 2.046 0 2.826"/></svg>
